icons/spam-fill.svg

<svg xmlns="http://www.w3.org/2000/svg" viewBox="0 0 24 24">
    <g>
        <path fill="none" d="M0 0h24v24H0z"/>
        <path d="M17.5 2.5L23 12l-5.5 9.5h-11L1 12l5.5-9.5h11zM11 15v2h2v-2h-2zm0-8v6h2V7h-2z"/>
    </g>
</svg>

<svg viewBox="0 0 24 24" fill="currentColor" xmlns="http://www.w3.org/2000/svg">
    <path d="M17.5 2.5L23 12L17.5 21.5H6.5L1 12L6.5 2.5H17.5ZM11 15V17H13V15H11ZM11 7V13H13V7H11Z"/>
</svg>
